public/assets/img/tech-logo/react-query.svg

<svg width="100" height="100" viewBox="0 0 100 100" fill="none" xmlns="http://www.w3.org/2000/svg">
<g id="reactquery">
<g id="reactquery_2">
<path id="Vector" fill-rule="evenodd" clip-rule="evenodd" d="M61.7109 60.6586L59.7928 63.9894C59.2149 64.9928 58.1452 65.6111 56.9874 65.6111H42.2932C41.1353 65.6111 40.0656 64.9928 39.4877 63.9894L37.5694 60.6586H61.7109ZM67.0809 51.3343L63.6987 57.207H35.5816L32.1996 51.3343H67.0809ZM63.823 42.2163L67.0863 47.8829H32.1942L35.4575 42.2163H63.823ZM56.9874 33.5967C58.1452 33.5967 59.2149 34.2151 59.7928 35.2185L61.8352 38.7647H37.4453L39.4877 35.2185C40.0656 34.2151 41.1353 33.5967 42.2932 33.5967H56.9874Z" fill="#00435B"/>
<path id="Vector_2" d="M20.9074 32.0512C19.2796 24.1582 18.9303 18.1044 19.9824 13.7085C20.6082 11.0941 21.7523 8.96123 23.4919 7.42244C25.3285 5.79787 27.6505 5.00069 30.2596 5.00069C34.5638 5.00069 39.0886 6.96346 43.9241 10.6922C45.8964 12.2131 47.9434 14.0463 50.0693 16.1928C50.2385 15.9749 50.4298 15.7695 50.6429 15.5796C56.6531 10.2236 61.7133 6.89581 66.0413 5.61273C68.6147 4.84981 71.0308 4.77713 73.231 5.51757C75.5535 6.29915 77.404 7.91479 78.7096 10.1778C80.8644 13.9126 81.4326 18.8201 80.6293 24.8796C80.3018 27.3495 79.742 30.04 78.9511 32.9551C79.2495 32.9912 79.5486 33.0573 79.8448 33.1555C87.4705 35.6825 92.8703 38.4001 96.1395 41.5057C98.0846 43.3535 99.3547 45.4107 99.8139 47.6878C100.299 50.0913 99.826 52.5021 98.5219 54.7634C96.3712 58.4928 92.4167 61.4341 86.7829 63.7639C84.5208 64.6993 81.9614 65.5465 79.1017 66.3085C79.2322 66.6031 79.3334 66.916 79.4011 67.2442C81.0289 75.1372 81.3782 81.191 80.326 85.5869C79.7003 88.2014 78.5562 90.3342 76.8166 91.873C74.98 93.4975 72.6579 94.2947 70.0489 94.2947C65.7447 94.2947 61.2199 92.332 56.3844 88.6032C54.3911 87.0662 52.3215 85.2101 50.1713 83.034C49.95 83.3801 49.6784 83.7018 49.3571 83.988C43.3469 89.344 38.2867 92.6718 33.9587 93.9549C31.3853 94.7178 28.9692 94.7905 26.769 94.05C24.4465 93.2685 22.596 91.6528 21.2904 89.3898C19.1356 85.655 18.5674 80.7475 19.3707 74.688C19.71 72.1288 20.2987 69.3328 21.1356 66.2955C20.8085 66.2623 20.48 66.1932 20.1552 66.0855C12.5295 63.5585 7.12969 60.8409 3.86052 57.7352C1.91544 55.8875 0.645278 53.8303 0.186124 51.5532C-0.298514 49.1497 0.174045 46.7389 1.47813 44.4775C3.62884 40.7482 7.58335 37.8069 13.2171 35.4771C15.5466 34.5138 18.1914 33.644 21.1547 32.8646C21.0491 32.6061 20.9658 32.3344 20.9074 32.0512Z" fill="#002B3B"/>
<path id="Vector_3" fill-rule="evenodd" clip-rule="evenodd" d="M40.4917 29.5367C44.4446 29.2221 48.519 29.0832 52.7148 29.1199C53.5094 29.1269 54.1592 28.4883 54.1662 27.6937C54.1691 27.359 54.0553 27.0338 53.8443 26.774C44.2944 15.0156 36.4307 9.13635 30.2534 9.13635C23.876 9.13635 22.0566 16.1662 24.7953 30.226C24.9454 30.9966 25.6856 31.5046 26.4587 31.3676C31.3344 30.5035 36.0121 29.8932 40.4917 29.5367Z" fill="#FF4154"/>
<path id="Vector_4" fill-rule="evenodd" clip-rule="evenodd" d="M62.6818 31.472C64.9646 34.7616 67.1556 38.2451 69.2547 41.9228C69.6487 42.613 70.5275 42.8531 71.2176 42.4592C71.507 42.294 71.7301 42.0335 71.8488 41.7222C77.2509 27.5528 78.3862 17.781 75.2548 12.4068C72.0234 6.86104 64.9825 8.77863 54.1322 18.1596C53.5356 18.6754 53.4654 19.5753 53.9747 20.1773C57.1985 23.9881 60.1009 27.753 62.6818 31.472Z" fill="#FF4154"/>
<path id="Vector_5" fill-rule="evenodd" clip-rule="evenodd" d="M72.2631 51.2672C70.5546 54.8581 68.6342 58.467 66.5019 62.094C66.0992 62.7791 66.3281 63.6609 67.0131 64.0636C67.3031 64.2341 67.6438 64.2976 67.9757 64.243C82.8629 61.7953 91.8526 57.8885 94.9449 52.5227C98.1386 46.9809 93.0027 41.9015 79.5372 37.2846C78.7954 37.0303 77.9866 37.4168 77.7184 38.1537C76.0193 42.8236 74.2008 47.1948 72.2631 51.2672Z" fill="#FF4154"/>
<path id="Vector_6" fill-rule="evenodd" clip-rule="evenodd" d="M60.0479 69.8511C56.0949 70.1657 52.0206 70.3047 47.8248 70.2679C47.0301 70.2609 46.3803 70.8995 46.3734 71.6941C46.3704 72.0288 46.4843 72.354 46.6953 72.6138C56.2452 84.3722 64.1088 90.2515 70.2861 90.2515C76.6636 90.2515 78.4829 83.2216 75.7443 69.1619C75.5941 68.3912 74.854 67.8832 74.0809 68.0202C69.2051 68.8843 64.5274 69.4946 60.0479 69.8511Z" fill="#FF4154"/>
<path id="Vector_7" fill-rule="evenodd" clip-rule="evenodd" d="M37.3182 68.0956C35.0354 64.8061 32.8444 61.3225 30.7453 57.6448C30.3514 56.9546 29.4726 56.7145 28.7824 57.1084C28.493 57.2736 28.2699 57.5341 28.1512 57.8455C22.7491 72.0148 21.6138 81.7866 24.7453 87.1608C27.9767 92.7066 35.0175 90.789 45.8678 81.408C46.4644 80.8923 46.5346 79.9924 46.0253 79.3903C42.8015 75.5795 39.8991 71.8146 37.3182 68.0956Z" fill="#FF4154"/>
<path id="Vector_8" fill-rule="evenodd" clip-rule="evenodd" d="M27.7369 47.7608C29.4455 44.17 31.3659 40.5611 33.4981 36.934C33.9008 36.249 33.672 35.3672 32.9869 34.9645C32.6969 34.794 32.3563 34.7305 32.0243 34.7851C17.1371 37.2328 8.14742 41.1396 5.05511 46.5054C1.8614 52.0472 6.9973 57.1265 20.4628 61.7434C21.2046 61.9978 22.0135 61.6113 22.2816 60.8743C23.9808 56.2044 25.7992 51.8332 27.7369 47.7608Z" fill="#FF4154"/>
<path id="Vector_9" fill-rule="evenodd" clip-rule="evenodd" d="M43.4745 33.7766H55.8088C57.6126 33.7766 59.2787 34.7414 60.1766 36.3059L66.3698 47.0973C67.2607 48.6496 67.2607 50.5583 66.3698 52.1106L60.1766 62.902C59.2787 64.4665 57.6126 65.4313 55.8088 65.4313H43.4745C41.6706 65.4313 40.0045 64.4665 39.1067 62.902L32.9135 52.1106C32.0225 50.5583 32.0225 48.6496 32.9135 47.0973L39.1067 36.3059C40.0045 34.7414 41.6706 33.7766 43.4745 33.7766ZM53.9289 37.0337C55.7337 37.0337 57.4005 37.9995 58.298 39.5653L62.6167 47.0996C63.5059 48.6508 63.5059 50.5571 62.6167 52.1083L58.298 59.6426C57.4005 61.2084 55.7337 62.1742 53.9289 62.1742H45.3543C43.5495 62.1742 41.8827 61.2084 40.9852 59.6426L36.6666 52.1083C35.7774 50.5571 35.7774 48.6508 36.6666 47.0996L40.9852 39.5653C41.8827 37.9995 43.5495 37.0337 45.3543 37.0337H53.9289ZM51.9027 40.5961H47.3805C45.5776 40.5961 43.9122 41.5599 43.014 43.1232L40.7319 47.0951C39.8393 48.6486 39.8393 50.5593 40.7319 52.1128L43.014 56.0847C43.9122 57.648 45.5776 58.6118 47.3805 58.6118H51.9027C53.7057 58.6118 55.3711 57.648 56.2693 56.0847L58.5514 52.1128C59.444 50.5593 59.444 48.6486 58.5514 47.0951L56.2693 43.1232C55.3711 41.5599 53.7057 40.5961 51.9027 40.5961ZM49.9517 44.0059C51.7533 44.0059 53.4176 44.9683 54.3164 46.5297L54.6399 47.0918C55.535 48.647 55.535 50.5609 54.6399 52.1161L54.3164 52.6782C53.4176 54.2396 51.7533 55.202 49.9517 55.202H49.3316C47.53 55.202 45.8656 54.2396 44.9669 52.6782L44.6434 52.1161C43.7483 50.5609 43.7483 48.647 44.6434 47.0918L44.9669 46.5297C45.8656 44.9683 47.53 44.0059 49.3316 44.0059H49.9517ZM49.6424 47.3647C48.8406 47.3647 48.1011 47.7915 47.7008 48.4843C47.3005 49.1771 47.3005 50.0308 47.7008 50.7236C48.1011 51.4164 48.8406 51.8432 49.6408 51.8432C50.4427 51.8432 51.1821 51.4164 51.5825 50.7236C51.9828 50.0308 51.9828 49.1771 51.5825 48.4843C51.1821 47.7915 50.4427 47.3647 49.6424 47.3647ZM31.4749 49.604H35.5064H31.4749Z" fill="#FFD94C"/>
</g>
</g>
</svg>

<svg xmlns="http://www.w3.org/2000/svg" width="100" height="100" fill="none"><path fill="#00435B" fill-rule="evenodd" d="m61.71 60.659-1.917 3.33a3.24 3.24 0 0 1-2.806 1.622H42.293a3.24 3.24 0 0 1-2.805-1.622l-1.919-3.33zm5.37-9.325-3.38 5.873H35.582L32.2 51.334zm-3.257-9.118 3.263 5.667H32.194l3.264-5.667zm-6.836-8.62a3.24 3.24 0 0 1 2.806 1.623l2.042 3.546h-24.39l2.043-3.547a3.24 3.24 0 0 1 2.805-1.621z" clip-rule="evenodd"/><path fill="#002B3B" d="M20.907 32.051c-1.627-7.893-1.977-13.947-.925-18.342.626-2.615 1.77-4.748 3.51-6.287 1.836-1.624 4.159-2.421 6.768-2.421 4.304 0 8.829 1.962 13.664 5.691q2.958 2.281 6.145 5.5a4.6 4.6 0 0 1 .574-.612c6.01-5.356 11.07-8.684 15.398-9.967 2.574-.763 4.99-.836 7.19-.095 2.323.781 4.173 2.397 5.479 4.66 2.154 3.735 2.723 8.642 1.92 14.702q-.492 3.704-1.679 8.075.45.053.894.2c7.626 2.527 13.025 5.245 16.295 8.35 1.945 1.848 3.215 3.906 3.674 6.183.485 2.403.012 4.814-1.292 7.075-2.15 3.73-6.105 6.671-11.74 9q-3.39 1.403-7.68 2.545.196.443.3.936c1.627 7.893 1.976 13.947.924 18.343-.626 2.614-1.77 4.747-3.51 6.286-1.836 1.624-4.158 2.422-6.767 2.422-4.304 0-8.83-1.963-13.665-5.692q-2.988-2.305-6.213-5.569a4.6 4.6 0 0 1-.814.954c-6.01 5.356-11.07 8.684-15.398 9.967-2.574.763-4.99.835-7.19.095-2.322-.781-4.173-2.397-5.479-4.66-2.154-3.735-2.723-8.642-1.92-14.702q.51-3.838 1.766-8.392a4.6 4.6 0 0 1-.98-.21C12.53 63.558 7.13 60.84 3.86 57.735 1.915 55.887.645 53.83.186 51.552c-.485-2.403-.012-4.814 1.292-7.075 2.15-3.73 6.105-6.671 11.74-9q3.492-1.445 7.937-2.613a4.6 4.6 0 0 1-.248-.814"/><path fill="#FF4154" fill-rule="evenodd" d="M40.492 29.537q5.93-.473 12.223-.417a1.439 1.439 0 0 0 1.13-2.346Q39.52 9.136 30.252 9.136q-9.565 0-5.458 21.09c.15.77.89 1.279 1.664 1.142q7.313-1.297 14.033-1.831m22.191 1.935a140 140 0 0 1 6.573 10.45 1.439 1.439 0 0 0 2.594-.2q8.103-21.254 3.406-29.315-4.847-8.319-21.123 5.753a1.44 1.44 0 0 0-.157 2.017q4.836 5.717 8.707 11.295m9.581 19.795q-2.562 5.387-5.761 10.827a1.439 1.439 0 0 0 1.474 2.149q22.33-3.672 26.969-11.72 4.791-8.314-15.408-15.238a1.44 1.44 0 0 0-1.819.869q-2.548 7.004-5.455 13.113M60.048 69.851q-5.93.472-12.223.417a1.439 1.439 0 0 0-1.13 2.346Q61.02 90.25 70.286 90.25q9.567 0 5.458-21.09a1.44 1.44 0 0 0-1.663-1.14q-7.314 1.295-14.033 1.83m-22.73-1.754a140 140 0 0 1-6.573-10.451 1.439 1.439 0 0 0-2.594.2Q20.048 79.1 24.745 87.162q4.847 8.319 21.123-5.753a1.44 1.44 0 0 0 .157-2.018q-4.836-5.715-8.707-11.294M27.737 47.76q2.563-5.385 5.761-10.826a1.439 1.439 0 0 0-1.474-2.149q-22.33 3.672-26.969 11.72-4.791 8.313 15.408 15.238a1.44 1.44 0 0 0 1.819-.869q2.548-7.004 5.455-13.113" clip-rule="evenodd"/><path fill="#FFD94C" fill-rule="evenodd" d="M43.475 33.777h12.334c1.804 0 3.47.964 4.368 2.529l6.193 10.791a5.04 5.04 0 0 1 0 5.014l-6.193 10.791a5.04 5.04 0 0 1-4.368 2.53H43.475a5.04 5.04 0 0 1-4.368-2.53l-6.193-10.791a5.04 5.04 0 0 1 0-5.014l6.193-10.791a5.04 5.04 0 0 1 4.368-2.53m10.454 3.257c1.805 0 3.471.965 4.369 2.531l4.319 7.535a5.04 5.04 0 0 1 0 5.008l-4.319 7.535a5.04 5.04 0 0 1-4.37 2.531h-8.574a5.04 5.04 0 0 1-4.369-2.531l-4.318-7.535a5.04 5.04 0 0 1 0-5.008l4.318-7.535a5.04 5.04 0 0 1 4.37-2.531zm-2.026 3.562H47.38a5.04 5.04 0 0 0-4.366 2.527l-2.282 3.972a5.04 5.04 0 0 0 0 5.018l2.282 3.972a5.04 5.04 0 0 0 4.366 2.527h4.523a5.04 5.04 0 0 0 4.366-2.527l2.282-3.972a5.04 5.04 0 0 0 0-5.018l-2.282-3.972a5.04 5.04 0 0 0-4.366-2.527m-1.951 3.41c1.801 0 3.466.962 4.364 2.524l.324.562a5.04 5.04 0 0 1 0 5.024l-.324.562a5.04 5.04 0 0 1-4.364 2.524h-.62a5.04 5.04 0 0 1-4.365-2.524l-.324-.562a5.04 5.04 0 0 1 0-5.024l.324-.562a5.04 5.04 0 0 1 4.365-2.524zm-.31 3.359a2.24 2.24 0 0 0-1.941 3.359 2.24 2.24 0 0 0 3.882-2.24 2.24 2.24 0 0 0-1.94-1.12m-18.167 2.239h4.031z" clip-rule="evenodd"/></svg>
